app/images/icons/tick-square-icon.svg

<?xml version="1.0" encoding="UTF-8" standalone="no"?>
<svg width="76px" height="76px" viewBox="0 0 76 76" version="1.1" xmlns="http://www.w3.org/2000/svg" xmlns:xlink="http://www.w3.org/1999/xlink" xmlns:sketch="http://www.bohemiancoding.com/sketch/ns">
    <!-- Generator: Sketch 3.1 (8751) - http://www.bohemiancoding.com/sketch -->
    <title>tick-square-icon</title>
    <desc>Created with Sketch.</desc>
    <defs></defs>
    <g id="Page-1" stroke="none" stroke-width="1" fill="none" fill-rule="evenodd" sketch:type="MSPage">
        <g id="tick-square-icon" sketch:type="MSLayerGroup" fill="#1B1A19">
            <path d="M28.6231833,49.9066667 C28.8701833,50.16 29.19445,50.2866667 29.5187167,50.2866667 C29.82905,50.2866667 30.1393833,50.16 30.3825833,49.9066667 L54.33905,27.4866667 C54.8507833,27.1066667 54.8773833,26.2212667 54.4011167,25.7133333 C53.9235833,25.2066667 53.1205167,25.2066667 52.61005,25.7133333 L29.5491167,47.2466667 L22.4291833,40.1546 C21.9339167,39.6466667 21.1321167,39.6466667 20.6381167,40.1546 C20.14285,40.5346 20.14285,41.4212667 20.6381167,41.9266667 L28.6231833,49.9066667" id="Fill-990" sketch:type="MSShapeGroup"></path>
            <path d="M2.53333333,2.53333333 L73.4666667,2.53333333 L73.4666667,73.4666667 L2.53333333,73.4666667 L2.53333333,2.53333333 Z M74.7333333,0 L1.26666667,0 C0.567466667,0 0,0.633333333 0,1.26666667 L0,74.7333333 C0,75.4933333 0.567466667,76 1.26666667,76 L74.7333333,76 C75.4325333,76 76,75.4933333 76,74.7333333 L76,1.26666667 C76,0.633333333 75.4325333,0 74.7333333,0 L74.7333333,0 Z" id="Fill-991" sketch:type="MSShapeGroup"></path>
        </g>
    </g>
</svg>

<svg width="76" height="76" viewBox="0 0 76 76" xmlns="http://www.w3.org/2000/svg">
    <desc>
        Created with Sketch.
    </desc>
    <g fill="#1B1A19">
        <path d="M28.623 49.907c.247.253.57.38.896.38.31 0 .62-.127.863-.38l23.956-22.42c.51-.38.537-1.266.06-1.774-.476-.506-1.28-.506-1.79 0L29.55 47.247l-7.12-7.092c-.496-.508-1.298-.508-1.792 0-.495.38-.495 1.266 0 1.772l7.985 7.98"/>
        <path d="M2.533 2.533h70.934v70.934H2.533V2.533zM74.733 0H1.267C.567 0 0 .633 0 1.267v73.466C0 75.493.567 76 1.267 76h73.466c.7 0 1.267-.507 1.267-1.267V1.267C76 .633 75.433 0 74.733 0z"/>
    </g>
</svg>
